( pcb2gcode 1.1.4 )

G94     ( Inches per minute feed rate. )
G20     ( Units == INCHES.             )
G90     ( Absolute coordinates.        )
S20000  ( RPM spindle speed.           )
M3      ( Spindle on clockwise.        )

G64 P0.00500 ( set maximum deviation from commanded toolpath )

G04 P0 ( dwell for no time -- G64 should not smooth over this point )
G00 Z0.11811 ( retract )

G00 X0.15100 Y0.79000 ( rapid move to begin. )
G01 Z0.00000 F7.87402 ( plunge. )
G04 P0 ( dwell for no time -- G64 should not smooth over this point )
X0.15100 Y0.79000
X0.15200 Y0.79000
X0.15200 Y0.78800
X0.15300 Y0.78800
X0.15300 Y0.78500
X0.15400 Y0.78500
X0.15400 Y0.78100
X0.15500 Y0.78100
X0.15500 Y0.68200
X0.15400 Y0.68200
X0.15400 Y0.67800
X0.15300 Y0.67800
X0.15300 Y0.67500
X0.15200 Y0.67500
X0.15200 Y0.67300
X0.15100 Y0.67300
X0.15100 Y0.67100
X0.15000 Y0.67100
X0.15000 Y0.67000
X0.14900 Y0.67000
X0.14900 Y0.66800
X0.14800 Y0.66800
X0.14800 Y0.66700
X0.14700 Y0.66700
X0.14700 Y0.66600
X0.14600 Y0.66600
X0.14600 Y0.66500
X0.14500 Y0.66500
X0.14500 Y0.66400
X0.14400 Y0.66400
X0.14400 Y0.66300
X0.14300 Y0.66300
X0.14300 Y0.66200
X0.14100 Y0.66200
X0.14100 Y0.66100
X0.13900 Y0.66100
X0.13900 Y0.66000
X0.13700 Y0.66000
X0.13700 Y0.65900
X0.13400 Y0.65900
X0.13400 Y0.65800
X0.13000 Y0.65800
X0.13000 Y0.30500
X0.13400 Y0.30500
X0.13400 Y0.30400
X0.13700 Y0.30400
X0.13700 Y0.30300
X0.13900 Y0.30300
X0.13900 Y0.30200
X0.14100 Y0.30200
X0.14100 Y0.30100
X0.14300 Y0.30100
X0.14300 Y0.30000
X0.14400 Y0.30000
X0.14400 Y0.29900
X0.14500 Y0.29900
X0.14500 Y0.29800
X0.14600 Y0.29800
X0.14600 Y0.29700
X0.14700 Y0.29700
X0.14700 Y0.29600
X0.14800 Y0.29600
X0.14800 Y0.29500
X0.14900 Y0.29500
X0.14900 Y0.29300
X0.15000 Y0.29300
X0.15000 Y0.29200
X0.15100 Y0.29200
X0.15100 Y0.29000
X0.15200 Y0.29000
X0.15200 Y0.28800
X0.15300 Y0.28800
X0.15300 Y0.28500
X0.15400 Y0.28500
X0.15400 Y0.28100
X0.15500 Y0.28100
X0.15500 Y0.18200
X0.15400 Y0.18200
X0.15400 Y0.17800
X0.15300 Y0.17800
X0.15300 Y0.17500
X0.15200 Y0.17500
X0.15200 Y0.17300
X0.15100 Y0.17300
X0.15100 Y0.17100
X0.15000 Y0.17100
X0.15000 Y0.17000
X0.14900 Y0.17000
X0.14900 Y0.16800
X0.14800 Y0.16800
X0.14800 Y0.16700
X0.14700 Y0.16700
X0.14700 Y0.16600
X0.14600 Y0.16600
X0.14600 Y0.16500
X0.14500 Y0.16500
X0.14500 Y0.16400
X0.14400 Y0.16400
X0.14400 Y0.16300
X0.07600 Y0.16300
X0.07600 Y0.16400
X0.07500 Y0.16400
X0.07500 Y0.16500
X0.07400 Y0.16500
X0.07400 Y0.16600
X0.07300 Y0.16600
X0.07300 Y0.16700
X0.07200 Y0.16700
X0.07200 Y0.16800
X0.07100 Y0.16800
X0.07100 Y0.17000
X0.07000 Y0.17000
X0.07000 Y0.29300
X0.07100 Y0.29300
X0.07100 Y0.29500
X0.07200 Y0.29500
X0.07200 Y0.29600
X0.07300 Y0.29600
X0.07300 Y0.29700
X0.07400 Y0.29700
X0.07400 Y0.29800
X0.07500 Y0.29800
X0.07500 Y0.29900
X0.07600 Y0.29900
X0.07600 Y0.30000
X0.07700 Y0.30000
X0.07700 Y0.30100
X0.07900 Y0.30100
X0.07900 Y0.30200
X0.08100 Y0.30200
X0.08100 Y0.30300
X0.08300 Y0.30300
X0.08300 Y0.30400
X0.08600 Y0.30400
X0.08600 Y0.30500
X0.08900 Y0.30500
X0.08900 Y0.65800
X0.08600 Y0.65800
X0.08600 Y0.65900
X0.08300 Y0.65900
X0.08300 Y0.66000
X0.08100 Y0.66000
X0.08100 Y0.66100
X0.07900 Y0.66100
X0.07900 Y0.66200
X0.07700 Y0.66200
X0.07700 Y0.66300
X0.07600 Y0.66300
X0.07600 Y0.66400
X0.07500 Y0.66400
X0.07500 Y0.66500
X0.07400 Y0.66500
X0.07400 Y0.66600
X0.07300 Y0.66600
X0.07300 Y0.66700
X0.07200 Y0.66700
X0.07200 Y0.66800
X0.07100 Y0.66800
X0.07100 Y0.67000
X0.07000 Y0.67000
X0.07000 Y0.79300
X0.07100 Y0.79300
X0.07100 Y0.79500
X0.07200 Y0.79500
X0.07200 Y0.79600
X0.07300 Y0.79600
X0.07300 Y0.79700
X0.07400 Y0.79700
X0.07400 Y0.79800
X0.07500 Y0.79800
X0.07500 Y0.79900
X0.07600 Y0.79900
X0.07600 Y0.80000
X0.14400 Y0.80000
X0.14400 Y0.79900
X0.14500 Y0.79900
X0.14500 Y0.79800
X0.14600 Y0.79800
X0.14600 Y0.79700
X0.14700 Y0.79700
X0.14700 Y0.79600
X0.14800 Y0.79600
X0.14800 Y0.79500
X0.14900 Y0.79500
X0.14900 Y0.79300
X0.15000 Y0.79300
X0.15000 Y0.79200
X0.15100 Y0.79200
X0.15100 Y0.79000
G04 P0 ( dwell for no time -- G64 should not smooth over this point )
G00 Z0.11811 ( retract )

G00 X0.25100 Y0.79000 ( rapid move to begin. )
G01 Z0.00000 F7.87402 ( plunge. )
G04 P0 ( dwell for no time -- G64 should not smooth over this point )
X0.25100 Y0.79000
X0.25200 Y0.79000
X0.25200 Y0.78800
X0.25300 Y0.78800
X0.25300 Y0.78500
X0.25400 Y0.78500
X0.25400 Y0.78100
X0.25500 Y0.78100
X0.25500 Y0.68200
X0.25400 Y0.68200
X0.25400 Y0.67800
X0.25300 Y0.67800
X0.25300 Y0.67500
X0.25200 Y0.67500
X0.25200 Y0.67300
X0.25100 Y0.67300
X0.25100 Y0.67100
X0.25000 Y0.67100
X0.25000 Y0.67000
X0.24900 Y0.67000
X0.24900 Y0.66800
X0.24800 Y0.66800
X0.24800 Y0.66700
X0.24700 Y0.66700
X0.24700 Y0.66600
X0.24600 Y0.66600
X0.24600 Y0.66500
X0.24500 Y0.66500
X0.24500 Y0.66400
X0.24400 Y0.66400
X0.24400 Y0.66300
X0.24300 Y0.66300
X0.24300 Y0.66200
X0.24100 Y0.66200
X0.24100 Y0.66100
X0.23900 Y0.66100
X0.23900 Y0.66000
X0.23700 Y0.66000
X0.23700 Y0.65900
X0.23400 Y0.65900
X0.23400 Y0.65800
X0.23000 Y0.65800
X0.23000 Y0.52300
X0.23600 Y0.52300
X0.23600 Y0.52200
X0.23700 Y0.52200
X0.23700 Y0.52100
X0.23800 Y0.52100
X0.23800 Y0.52000
X0.23900 Y0.52000
X0.23900 Y0.51900
X0.24000 Y0.51900
X0.24000 Y0.51800
X0.24100 Y0.51800
X0.24100 Y0.51700
X0.24200 Y0.51700
X0.24200 Y0.51600
X0.24300 Y0.51600
X0.24300 Y0.51500
X0.24400 Y0.51500
X0.24400 Y0.51400
X0.24500 Y0.51400
X0.24500 Y0.51300
X0.24600 Y0.51300
X0.24600 Y0.51200
X0.24700 Y0.51200
X0.24700 Y0.51100
X0.24800 Y0.51100
X0.24800 Y0.51000
X0.24900 Y0.51000
X0.24900 Y0.50900
X0.25000 Y0.50900
X0.25000 Y0.50800
X0.25100 Y0.50800
X0.25100 Y0.45500
X0.25000 Y0.45500
X0.25000 Y0.45400
X0.24900 Y0.45400
X0.24900 Y0.45300
X0.24800 Y0.45300
X0.24800 Y0.45200
X0.24700 Y0.45200
X0.24700 Y0.45100
X0.24600 Y0.45100
X0.24600 Y0.45000
X0.24500 Y0.45000
X0.24500 Y0.44900
X0.24400 Y0.44900
X0.24400 Y0.44800
X0.24300 Y0.44800
X0.24300 Y0.44700
X0.24200 Y0.44700
X0.24200 Y0.44600
X0.24100 Y0.44600
X0.24100 Y0.44500
X0.24000 Y0.44500
X0.24000 Y0.44400
X0.23900 Y0.44400
X0.23900 Y0.44300
X0.23800 Y0.44300
X0.23800 Y0.44200
X0.23700 Y0.44200
X0.23700 Y0.44100
X0.23600 Y0.44100
X0.23600 Y0.44000
X0.23000 Y0.44000
X0.23000 Y0.30500
X0.23400 Y0.30500
X0.23400 Y0.30400
X0.23700 Y0.30400
X0.23700 Y0.30300
X0.23900 Y0.30300
X0.23900 Y0.30200
X0.24100 Y0.30200
X0.24100 Y0.30100
X0.24300 Y0.30100
X0.24300 Y0.30000
X0.24400 Y0.30000
X0.24400 Y0.29900
X0.24500 Y0.29900
X0.24500 Y0.29800
X0.24600 Y0.29800
X0.24600 Y0.29700
X0.24700 Y0.29700
X0.24700 Y0.29600
X0.24800 Y0.29600
X0.24800 Y0.29500
X0.24900 Y0.29500
X0.24900 Y0.29300
X0.25000 Y0.29300
X0.25000 Y0.29200
X0.25100 Y0.29200
X0.25100 Y0.29000
X0.25200 Y0.29000
X0.25200 Y0.28800
X0.25300 Y0.28800
X0.25300 Y0.28500
X0.25400 Y0.28500
X0.25400 Y0.28100
X0.25500 Y0.28100
X0.25500 Y0.18200
X0.25400 Y0.18200
X0.25400 Y0.17800
X0.25300 Y0.17800
X0.25300 Y0.17500
X0.25200 Y0.17500
X0.25200 Y0.17300
X0.25100 Y0.17300
X0.25100 Y0.17100
X0.25000 Y0.17100
X0.25000 Y0.17000
X0.24900 Y0.17000
X0.24900 Y0.16800
X0.24800 Y0.16800
X0.24800 Y0.16700
X0.24700 Y0.16700
X0.24700 Y0.16600
X0.24600 Y0.16600
X0.24600 Y0.16500
X0.24500 Y0.16500
X0.24500 Y0.16400
X0.24400 Y0.16400
X0.24400 Y0.16300
X0.17600 Y0.16300
X0.17600 Y0.16400
X0.17500 Y0.16400
X0.17500 Y0.16500
X0.17400 Y0.16500
X0.17400 Y0.16600
X0.17300 Y0.16600
X0.17300 Y0.16700
X0.17200 Y0.16700
X0.17200 Y0.16800
X0.17100 Y0.16800
X0.17100 Y0.17000
X0.17000 Y0.17000
X0.17000 Y0.17100
X0.16900 Y0.17100
X0.16900 Y0.17300
X0.16800 Y0.17300
X0.16800 Y0.17500
X0.16700 Y0.17500
X0.16700 Y0.17800
X0.16600 Y0.17800
X0.16600 Y0.18200
X0.16500 Y0.18200
X0.16500 Y0.28100
X0.16600 Y0.28100
X0.16600 Y0.28500
X0.16700 Y0.28500
X0.16700 Y0.28800
X0.16800 Y0.28800
X0.16800 Y0.29000
X0.16900 Y0.29000
X0.16900 Y0.29200
X0.17000 Y0.29200
X0.17000 Y0.29300
X0.17100 Y0.29300
X0.17100 Y0.29500
X0.17200 Y0.29500
X0.17200 Y0.29600
X0.17300 Y0.29600
X0.17300 Y0.29700
X0.17400 Y0.29700
X0.17400 Y0.29800
X0.17500 Y0.29800
X0.17500 Y0.29900
X0.17600 Y0.29900
X0.17600 Y0.30000
X0.17700 Y0.30000
X0.17700 Y0.30100
X0.17900 Y0.30100
X0.17900 Y0.30200
X0.18100 Y0.30200
X0.18100 Y0.30300
X0.18300 Y0.30300
X0.18300 Y0.30400
X0.18600 Y0.30400
X0.18600 Y0.30500
X0.18900 Y0.30500
X0.18900 Y0.44000
X0.18300 Y0.44000
X0.18300 Y0.44100
X0.18200 Y0.44100
X0.18200 Y0.44200
X0.18100 Y0.44200
X0.18100 Y0.44300
X0.18000 Y0.44300
X0.18000 Y0.44400
X0.17900 Y0.44400
X0.17900 Y0.44500
X0.17800 Y0.44500
X0.17800 Y0.44600
X0.17700 Y0.44600
X0.17700 Y0.44700
X0.17600 Y0.44700
X0.17600 Y0.44800
X0.17500 Y0.44800
X0.17500 Y0.44900
X0.17400 Y0.44900
X0.17400 Y0.45000
X0.17300 Y0.45000
X0.17300 Y0.45100
X0.17200 Y0.45100
X0.17200 Y0.45200
X0.17100 Y0.45200
X0.17100 Y0.45300
X0.17000 Y0.45300
X0.17000 Y0.45400
X0.16900 Y0.45400
X0.16900 Y0.45500
X0.16800 Y0.45500
X0.16800 Y0.50800
X0.16900 Y0.50800
X0.16900 Y0.50900
X0.17000 Y0.50900
X0.17000 Y0.51000
X0.17100 Y0.51000
X0.17100 Y0.51100
X0.17200 Y0.51100
X0.17200 Y0.51200
X0.17300 Y0.51200
X0.17300 Y0.51300
X0.17400 Y0.51300
X0.17400 Y0.51400
X0.17500 Y0.51400
X0.17500 Y0.51500
X0.17600 Y0.51500
X0.17600 Y0.51600
X0.17700 Y0.51600
X0.17700 Y0.51700
X0.17800 Y0.51700
X0.17800 Y0.51800
X0.17900 Y0.51800
X0.17900 Y0.51900
X0.18000 Y0.51900
X0.18000 Y0.52000
X0.18100 Y0.52000
X0.18100 Y0.52100
X0.18200 Y0.52100
X0.18200 Y0.52200
X0.18300 Y0.52200
X0.18300 Y0.52300
X0.18900 Y0.52300
X0.18900 Y0.65800
X0.18600 Y0.65800
X0.18600 Y0.65900
X0.18300 Y0.65900
X0.18300 Y0.66000
X0.18100 Y0.66000
X0.18100 Y0.66100
X0.17900 Y0.66100
X0.17900 Y0.66200
X0.17700 Y0.66200
X0.17700 Y0.66300
X0.17600 Y0.66300
X0.17600 Y0.66400
X0.17500 Y0.66400
X0.17500 Y0.66500
X0.17400 Y0.66500
X0.17400 Y0.66600
X0.17300 Y0.66600
X0.17300 Y0.66700
X0.17200 Y0.66700
X0.17200 Y0.66800
X0.17100 Y0.66800
X0.17100 Y0.67000
X0.17000 Y0.67000
X0.17000 Y0.67100
X0.16900 Y0.67100
X0.16900 Y0.67300
X0.16800 Y0.67300
X0.16800 Y0.67500
X0.16700 Y0.67500
X0.16700 Y0.67800
X0.16600 Y0.67800
X0.16600 Y0.68200
X0.16500 Y0.68200
X0.16500 Y0.78100
X0.16600 Y0.78100
X0.16600 Y0.78500
X0.16700 Y0.78500
X0.16700 Y0.78800
X0.16800 Y0.78800
X0.16800 Y0.79000
X0.16900 Y0.79000
X0.16900 Y0.79200
X0.17000 Y0.79200
X0.17000 Y0.79300
X0.17100 Y0.79300
X0.17100 Y0.79500
X0.17200 Y0.79500
X0.17200 Y0.79600
X0.17300 Y0.79600
X0.17300 Y0.79700
X0.17400 Y0.79700
X0.17400 Y0.79800
X0.17500 Y0.79800
X0.17500 Y0.79900
X0.17600 Y0.79900
X0.17600 Y0.80000
X0.24400 Y0.80000
X0.24400 Y0.79900
X0.24500 Y0.79900
X0.24500 Y0.79800
X0.24600 Y0.79800
X0.24600 Y0.79700
X0.24700 Y0.79700
X0.24700 Y0.79600
X0.24800 Y0.79600
X0.24800 Y0.79500
X0.24900 Y0.79500
X0.24900 Y0.79300
X0.25000 Y0.79300
X0.25000 Y0.79200
X0.25100 Y0.79200
X0.25100 Y0.79000
G04 P0 ( dwell for no time -- G64 should not smooth over this point )
G00 Z0.11811 ( retract )

G00 X0.35100 Y0.79000 ( rapid move to begin. )
G01 Z0.00000 F7.87402 ( plunge. )
G04 P0 ( dwell for no time -- G64 should not smooth over this point )
X0.35100 Y0.79000
X0.35200 Y0.79000
X0.35200 Y0.78800
X0.35300 Y0.78800
X0.35300 Y0.78500
X0.35400 Y0.78500
X0.35400 Y0.78100
X0.35500 Y0.78100
X0.35500 Y0.68200
X0.35400 Y0.68200
X0.35400 Y0.67800
X0.35300 Y0.67800
X0.35300 Y0.67500
X0.35200 Y0.67500
X0.35200 Y0.67300
X0.35100 Y0.67300
X0.35100 Y0.67100
X0.35000 Y0.67100
X0.35000 Y0.67000
X0.34900 Y0.67000
X0.34900 Y0.66800
X0.34800 Y0.66800
X0.34800 Y0.66700
X0.34700 Y0.66700
X0.34700 Y0.66600
X0.34600 Y0.66600
X0.34600 Y0.66500
X0.34500 Y0.66500
X0.34500 Y0.66400
X0.34400 Y0.66400
X0.34400 Y0.66300
X0.34300 Y0.66300
X0.34300 Y0.66200
X0.34100 Y0.66200
X0.34100 Y0.66100
X0.33900 Y0.66100
X0.33900 Y0.66000
X0.33700 Y0.66000
X0.33700 Y0.65900
X0.33400 Y0.65900
X0.33400 Y0.65800
X0.33000 Y0.65800
X0.33000 Y0.52300
X0.33600 Y0.52300
X0.33600 Y0.52200
X0.33700 Y0.52200
X0.33700 Y0.52100
X0.33800 Y0.52100
X0.33800 Y0.52000
X0.33900 Y0.52000
X0.33900 Y0.51900
X0.34000 Y0.51900
X0.34000 Y0.51800
X0.34100 Y0.51800
X0.34100 Y0.51700
X0.34200 Y0.51700
X0.34200 Y0.51600
X0.34300 Y0.51600
X0.34300 Y0.51500
X0.34400 Y0.51500
X0.34400 Y0.51400
X0.34500 Y0.51400
X0.34500 Y0.51300
X0.34600 Y0.51300
X0.34600 Y0.51200
X0.34700 Y0.51200
X0.34700 Y0.51100
X0.34800 Y0.51100
X0.34800 Y0.51000
X0.34900 Y0.51000
X0.34900 Y0.50900
X0.35000 Y0.50900
X0.35000 Y0.50800
X0.35100 Y0.50800
X0.35100 Y0.45500
X0.35000 Y0.45500
X0.35000 Y0.45400
X0.34900 Y0.45400
X0.34900 Y0.45300
X0.34800 Y0.45300
X0.34800 Y0.45200
X0.34700 Y0.45200
X0.34700 Y0.45100
X0.34600 Y0.45100
X0.34600 Y0.45000
X0.34500 Y0.45000
X0.34500 Y0.44900
X0.34400 Y0.44900
X0.34400 Y0.44800
X0.34300 Y0.44800
X0.34300 Y0.44700
X0.34200 Y0.44700
X0.34200 Y0.44600
X0.34100 Y0.44600
X0.34100 Y0.44500
X0.34000 Y0.44500
X0.34000 Y0.44400
X0.33900 Y0.44400
X0.33900 Y0.44300
X0.33800 Y0.44300
X0.33800 Y0.44200
X0.33700 Y0.44200
X0.33700 Y0.44100
X0.33600 Y0.44100
X0.33600 Y0.44000
X0.33000 Y0.44000
X0.33000 Y0.30500
X0.33400 Y0.30500
X0.33400 Y0.30400
X0.33700 Y0.30400
X0.33700 Y0.30300
X0.33900 Y0.30300
X0.33900 Y0.30200
X0.34100 Y0.30200
X0.34100 Y0.30100
X0.34300 Y0.30100
X0.34300 Y0.30000
X0.34400 Y0.30000
X0.34400 Y0.29900
X0.34500 Y0.29900
X0.34500 Y0.29800
X0.34600 Y0.29800
X0.34600 Y0.29700
X0.34700 Y0.29700
X0.34700 Y0.29600
X0.34800 Y0.29600
X0.34800 Y0.29500
X0.34900 Y0.29500
X0.34900 Y0.29300
X0.35000 Y0.29300
X0.35000 Y0.29200
X0.35100 Y0.29200
X0.35100 Y0.29000
X0.35200 Y0.29000
X0.35200 Y0.28800
X0.35300 Y0.28800
X0.35300 Y0.28500
X0.35400 Y0.28500
X0.35400 Y0.28100
X0.35500 Y0.28100
X0.35500 Y0.18200
X0.35400 Y0.18200
X0.35400 Y0.17800
X0.35300 Y0.17800
X0.35300 Y0.17500
X0.35200 Y0.17500
X0.35200 Y0.17300
X0.35100 Y0.17300
X0.35100 Y0.17100
X0.35000 Y0.17100
X0.35000 Y0.17000
X0.34900 Y0.17000
X0.34900 Y0.16800
X0.34800 Y0.16800
X0.34800 Y0.16700
X0.34700 Y0.16700
X0.34700 Y0.16600
X0.34600 Y0.16600
X0.34600 Y0.16500
X0.34500 Y0.16500
X0.34500 Y0.16400
X0.34400 Y0.16400
X0.34400 Y0.16300
X0.27600 Y0.16300
X0.27600 Y0.16400
X0.27500 Y0.16400
X0.27500 Y0.16500
X0.27400 Y0.16500
X0.27400 Y0.16600
X0.27300 Y0.16600
X0.27300 Y0.16700
X0.27200 Y0.16700
X0.27200 Y0.16800
X0.27100 Y0.16800
X0.27100 Y0.17000
X0.27000 Y0.17000
X0.27000 Y0.17100
X0.26900 Y0.17100
X0.26900 Y0.17300
X0.26800 Y0.17300
X0.26800 Y0.17500
X0.26700 Y0.17500
X0.26700 Y0.17800
X0.26600 Y0.17800
X0.26600 Y0.18200
X0.26500 Y0.18200
X0.26500 Y0.28100
X0.26600 Y0.28100
X0.26600 Y0.28500
X0.26700 Y0.28500
X0.26700 Y0.28800
X0.26800 Y0.28800
X0.26800 Y0.29000
X0.26900 Y0.29000
X0.26900 Y0.29200
X0.27000 Y0.29200
X0.27000 Y0.29300
X0.27100 Y0.29300
X0.27100 Y0.29500
X0.27200 Y0.29500
X0.27200 Y0.29600
X0.27300 Y0.29600
X0.27300 Y0.29700
X0.27400 Y0.29700
X0.27400 Y0.29800
X0.27500 Y0.29800
X0.27500 Y0.29900
X0.27600 Y0.29900
X0.27600 Y0.30000
X0.27700 Y0.30000
X0.27700 Y0.30100
X0.27900 Y0.30100
X0.27900 Y0.30200
X0.28100 Y0.30200
X0.28100 Y0.30300
X0.28300 Y0.30300
X0.28300 Y0.30400
X0.28600 Y0.30400
X0.28600 Y0.30500
X0.28900 Y0.30500
X0.28900 Y0.44000
X0.28300 Y0.44000
X0.28300 Y0.44100
X0.28200 Y0.44100
X0.28200 Y0.44200
X0.28100 Y0.44200
X0.28100 Y0.44300
X0.28000 Y0.44300
X0.28000 Y0.44400
X0.27900 Y0.44400
X0.27900 Y0.44500
X0.27800 Y0.44500
X0.27800 Y0.44600
X0.27700 Y0.44600
X0.27700 Y0.44700
X0.27600 Y0.44700
X0.27600 Y0.44800
X0.27500 Y0.44800
X0.27500 Y0.44900
X0.27400 Y0.44900
X0.27400 Y0.45000
X0.27300 Y0.45000
X0.27300 Y0.45100
X0.27200 Y0.45100
X0.27200 Y0.45200
X0.27100 Y0.45200
X0.27100 Y0.45300
X0.27000 Y0.45300
X0.27000 Y0.45400
X0.26900 Y0.45400
X0.26900 Y0.45500
X0.26800 Y0.45500
X0.26800 Y0.50800
X0.26900 Y0.50800
X0.26900 Y0.50900
X0.27000 Y0.50900
X0.27000 Y0.51000
X0.27100 Y0.51000
X0.27100 Y0.51100
X0.27200 Y0.51100
X0.27200 Y0.51200
X0.27300 Y0.51200
X0.27300 Y0.51300
X0.27400 Y0.51300
X0.27400 Y0.51400
X0.27500 Y0.51400
X0.27500 Y0.51500
X0.27600 Y0.51500
X0.27600 Y0.51600
X0.27700 Y0.51600
X0.27700 Y0.51700
X0.27800 Y0.51700
X0.27800 Y0.51800
X0.27900 Y0.51800
X0.27900 Y0.51900
X0.28000 Y0.51900
X0.28000 Y0.52000
X0.28100 Y0.52000
X0.28100 Y0.52100
X0.28200 Y0.52100
X0.28200 Y0.52200
X0.28300 Y0.52200
X0.28300 Y0.52300
X0.28900 Y0.52300
X0.28900 Y0.65800
X0.28600 Y0.65800
X0.28600 Y0.65900
X0.28300 Y0.65900
X0.28300 Y0.66000
X0.28100 Y0.66000
X0.28100 Y0.66100
X0.27900 Y0.66100
X0.27900 Y0.66200
X0.27700 Y0.66200
X0.27700 Y0.66300
X0.27600 Y0.66300
X0.27600 Y0.66400
X0.27500 Y0.66400
X0.27500 Y0.66500
X0.27400 Y0.66500
X0.27400 Y0.66600
X0.27300 Y0.66600
X0.27300 Y0.66700
X0.27200 Y0.66700
X0.27200 Y0.66800
X0.27100 Y0.66800
X0.27100 Y0.67000
X0.27000 Y0.67000
X0.27000 Y0.67100
X0.26900 Y0.67100
X0.26900 Y0.67300
X0.26800 Y0.67300
X0.26800 Y0.67500
X0.26700 Y0.67500
X0.26700 Y0.67800
X0.26600 Y0.67800
X0.26600 Y0.68200
X0.26500 Y0.68200
X0.26500 Y0.78100
X0.26600 Y0.78100
X0.26600 Y0.78500
X0.26700 Y0.78500
X0.26700 Y0.78800
X0.26800 Y0.78800
X0.26800 Y0.79000
X0.26900 Y0.79000
X0.26900 Y0.79200
X0.27000 Y0.79200
X0.27000 Y0.79300
X0.27100 Y0.79300
X0.27100 Y0.79500
X0.27200 Y0.79500
X0.27200 Y0.79600
X0.27300 Y0.79600
X0.27300 Y0.79700
X0.27400 Y0.79700
X0.27400 Y0.79800
X0.27500 Y0.79800
X0.27500 Y0.79900
X0.27600 Y0.79900
X0.27600 Y0.80000
X0.34400 Y0.80000
X0.34400 Y0.79900
X0.34500 Y0.79900
X0.34500 Y0.79800
X0.34600 Y0.79800
X0.34600 Y0.79700
X0.34700 Y0.79700
X0.34700 Y0.79600
X0.34800 Y0.79600
X0.34800 Y0.79500
X0.34900 Y0.79500
X0.34900 Y0.79300
X0.35000 Y0.79300
X0.35000 Y0.79200
X0.35100 Y0.79200
X0.35100 Y0.79000
G04 P0 ( dwell for no time -- G64 should not smooth over this point )
G00 Z0.11811 ( retract )

G00 X0.44800 Y0.79000 ( rapid move to begin. )
G01 Z0.00000 F7.87402 ( plunge. )
G04 P0 ( dwell for no time -- G64 should not smooth over this point )
X0.44800 Y0.79000
X0.44800 Y0.66700
X0.44700 Y0.66700
X0.44700 Y0.66600
X0.44600 Y0.66600
X0.44600 Y0.66500
X0.44500 Y0.66500
X0.44500 Y0.66400
X0.44400 Y0.66400
X0.44400 Y0.66300
X0.44300 Y0.66300
X0.44300 Y0.66200
X0.44100 Y0.66200
X0.44100 Y0.66100
X0.43900 Y0.66100
X0.43900 Y0.66000
X0.43700 Y0.66000
X0.43700 Y0.65900
X0.43400 Y0.65900
X0.43400 Y0.65800
X0.43000 Y0.65800
X0.43000 Y0.52300
X0.43600 Y0.52300
X0.43600 Y0.52200
X0.43700 Y0.52200
X0.43700 Y0.52100
X0.43800 Y0.52100
X0.43800 Y0.52000
X0.43900 Y0.52000
X0.43900 Y0.51900
X0.44000 Y0.51900
X0.44000 Y0.51800
X0.44100 Y0.51800
X0.44100 Y0.51700
X0.44200 Y0.51700
X0.44200 Y0.51600
X0.44300 Y0.51600
X0.44300 Y0.51500
X0.44400 Y0.51500
X0.44400 Y0.51400
X0.44500 Y0.51400
X0.44500 Y0.51300
X0.44600 Y0.51300
X0.44600 Y0.51200
X0.44700 Y0.51200
X0.44700 Y0.51100
X0.44800 Y0.51100
X0.44800 Y0.45200
X0.44700 Y0.45200
X0.44700 Y0.45100
X0.44600 Y0.45100
X0.44600 Y0.45000
X0.44500 Y0.45000
X0.44500 Y0.44900
X0.44400 Y0.44900
X0.44400 Y0.44800
X0.44300 Y0.44800
X0.44300 Y0.44700
X0.44200 Y0.44700
X0.44200 Y0.44600
X0.44100 Y0.44600
X0.44100 Y0.44500
X0.44000 Y0.44500
X0.44000 Y0.44400
X0.43900 Y0.44400
X0.43900 Y0.44300
X0.43800 Y0.44300
X0.43800 Y0.44200
X0.43700 Y0.44200
X0.43700 Y0.44100
X0.43600 Y0.44100
X0.43600 Y0.44000
X0.43000 Y0.44000
X0.43000 Y0.30500
X0.43400 Y0.30500
X0.43400 Y0.30400
X0.43700 Y0.30400
X0.43700 Y0.30300
X0.43900 Y0.30300
X0.43900 Y0.30200
X0.44100 Y0.30200
X0.44100 Y0.30100
X0.44300 Y0.30100
X0.44300 Y0.30000
X0.44400 Y0.30000
X0.44400 Y0.29900
X0.44500 Y0.29900
X0.44500 Y0.29800
X0.44600 Y0.29800
X0.44600 Y0.29700
X0.44700 Y0.29700
X0.44700 Y0.29600
X0.44800 Y0.29600
X0.44800 Y0.16700
X0.44700 Y0.16700
X0.44700 Y0.16600
X0.44600 Y0.16600
X0.44600 Y0.16500
X0.44500 Y0.16500
X0.44500 Y0.16400
X0.44400 Y0.16400
X0.44400 Y0.16300
X0.37600 Y0.16300
X0.37600 Y0.16400
X0.37500 Y0.16400
X0.37500 Y0.16500
X0.37400 Y0.16500
X0.37400 Y0.16600
X0.37300 Y0.16600
X0.37300 Y0.16700
X0.37200 Y0.16700
X0.37200 Y0.16800
X0.37100 Y0.16800
X0.37100 Y0.17000
X0.37000 Y0.17000
X0.37000 Y0.17100
X0.36900 Y0.17100
X0.36900 Y0.17300
X0.36800 Y0.17300
X0.36800 Y0.17500
X0.36700 Y0.17500
X0.36700 Y0.17800
X0.36600 Y0.17800
X0.36600 Y0.18200
X0.36500 Y0.18200
X0.36500 Y0.28100
X0.36600 Y0.28100
X0.36600 Y0.28500
X0.36700 Y0.28500
X0.36700 Y0.28800
X0.36800 Y0.28800
X0.36800 Y0.29000
X0.36900 Y0.29000
X0.36900 Y0.29200
X0.37000 Y0.29200
X0.37000 Y0.29300
X0.37100 Y0.29300
X0.37100 Y0.29500
X0.37200 Y0.29500
X0.37200 Y0.29600
X0.37300 Y0.29600
X0.37300 Y0.29700
X0.37400 Y0.29700
X0.37400 Y0.29800
X0.37500 Y0.29800
X0.37500 Y0.29900
X0.37600 Y0.29900
X0.37600 Y0.30000
X0.37700 Y0.30000
X0.37700 Y0.30100
X0.37900 Y0.30100
X0.37900 Y0.30200
X0.38100 Y0.30200
X0.38100 Y0.30300
X0.38300 Y0.30300
X0.38300 Y0.30400
X0.38600 Y0.30400
X0.38600 Y0.30500
X0.38900 Y0.30500
X0.38900 Y0.44000
X0.38300 Y0.44000
X0.38300 Y0.44100
X0.38200 Y0.44100
X0.38200 Y0.44200
X0.38100 Y0.44200
X0.38100 Y0.44300
X0.38000 Y0.44300
X0.38000 Y0.44400
X0.37900 Y0.44400
X0.37900 Y0.44500
X0.37800 Y0.44500
X0.37800 Y0.44600
X0.37700 Y0.44600
X0.37700 Y0.44700
X0.37600 Y0.44700
X0.37600 Y0.44800
X0.37500 Y0.44800
X0.37500 Y0.44900
X0.37400 Y0.44900
X0.37400 Y0.45000
X0.37300 Y0.45000
X0.37300 Y0.45100
X0.37200 Y0.45100
X0.37200 Y0.45200
X0.37100 Y0.45200
X0.37100 Y0.45300
X0.37000 Y0.45300
X0.37000 Y0.45400
X0.36900 Y0.45400
X0.36900 Y0.45500
X0.36800 Y0.45500
X0.36800 Y0.50800
X0.36900 Y0.50800
X0.36900 Y0.50900
X0.37000 Y0.50900
X0.37000 Y0.51000
X0.37100 Y0.51000
X0.37100 Y0.51100
X0.37200 Y0.51100
X0.37200 Y0.51200
X0.37300 Y0.51200
X0.37300 Y0.51300
X0.37400 Y0.51300
X0.37400 Y0.51400
X0.37500 Y0.51400
X0.37500 Y0.51500
X0.37600 Y0.51500
X0.37600 Y0.51600
X0.37700 Y0.51600
X0.37700 Y0.51700
X0.37800 Y0.51700
X0.37800 Y0.51800
X0.37900 Y0.51800
X0.37900 Y0.51900
X0.38000 Y0.51900
X0.38000 Y0.52000
X0.38100 Y0.52000
X0.38100 Y0.52100
X0.38200 Y0.52100
X0.38200 Y0.52200
X0.38300 Y0.52200
X0.38300 Y0.52300
X0.38900 Y0.52300
X0.38900 Y0.65800
X0.38600 Y0.65800
X0.38600 Y0.65900
X0.38300 Y0.65900
X0.38300 Y0.66000
X0.38100 Y0.66000
X0.38100 Y0.66100
X0.37900 Y0.66100
X0.37900 Y0.66200
X0.37700 Y0.66200
X0.37700 Y0.66300
X0.37600 Y0.66300
X0.37600 Y0.66400
X0.37500 Y0.66400
X0.37500 Y0.66500
X0.37400 Y0.66500
X0.37400 Y0.66600
X0.37300 Y0.66600
X0.37300 Y0.66700
X0.37200 Y0.66700
X0.37200 Y0.66800
X0.37100 Y0.66800
X0.37100 Y0.67000
X0.37000 Y0.67000
X0.37000 Y0.67100
X0.36900 Y0.67100
X0.36900 Y0.67300
X0.36800 Y0.67300
X0.36800 Y0.67500
X0.36700 Y0.67500
X0.36700 Y0.67800
X0.36600 Y0.67800
X0.36600 Y0.68200
X0.36500 Y0.68200
X0.36500 Y0.78100
X0.36600 Y0.78100
X0.36600 Y0.78500
X0.36700 Y0.78500
X0.36700 Y0.78800
X0.36800 Y0.78800
X0.36800 Y0.79000
X0.36900 Y0.79000
X0.36900 Y0.79200
X0.37000 Y0.79200
X0.37000 Y0.79300
X0.37100 Y0.79300
X0.37100 Y0.79500
X0.37200 Y0.79500
X0.37200 Y0.79600
X0.37300 Y0.79600
X0.37300 Y0.79700
X0.37400 Y0.79700
X0.37400 Y0.79800
X0.37500 Y0.79800
X0.37500 Y0.79900
X0.37600 Y0.79900
X0.37600 Y0.80000
X0.44400 Y0.80000
X0.44400 Y0.79900
X0.44500 Y0.79900
X0.44500 Y0.79800
X0.44600 Y0.79800
X0.44600 Y0.79700
X0.44700 Y0.79700
X0.44700 Y0.79600
X0.44800 Y0.79600
X0.44800 Y0.79000

G04 P0 ( dwell for no time -- G64 should not smooth over this point )
G00 Z0.78740 ( retract )

M9 ( Coolant off. )
M2 ( Program end. )

