( pcb2gcode 1.1.4 )

( This file uses 2 drill bit sizes. )

G94     ( Inches per minute feed rate. )
G20     ( Units == INCHES.             )
G90     ( Absolute coordinates.        )
S20000  ( RPM spindle speed.           )

G00 Z0.78740 ( Retract )
T1
M5      ( Spindle stop.                )
M6      ( Tool change.                 )
(MSG, CHANGE TOOL BIT: to drill size 0.03200 inch)
M0      ( Temporary machine stop.      )
M3      ( Spindle on clockwise.        )

G81 R0.11811 Z-0.11811 F7.87402 X0.21000 Y0.48000
X0.31000 Y0.48000
X0.41000 Y0.48000


G00 Z0.78740 ( Retract )
T2
M5      ( Spindle stop.                )
M6      ( Tool change.                 )
(MSG, CHANGE TOOL BIT: to drill size 0.03940 inch)
M0      ( Temporary machine stop.      )
M3      ( Spindle on clockwise.        )

G81 R0.11811 Z-0.11811 F7.87402 X0.11000 Y0.23000
X0.21000 Y0.23000
X0.31000 Y0.23000
X0.41000 Y0.23000
X0.41000 Y0.73000
X0.31000 Y0.73000
X0.21000 Y0.73000
X0.11000 Y0.73000


G00 Z0.78740 ( All done -- retract )

M9 ( Coolant off. )
M2 ( Program end. )

